telier/img/about-telegram.svg

<svg width="16" height="14" viewBox="0 0 16 14" fill="none" xmlns="http://www.w3.org/2000/svg">
<path d="M1.57182 6.11808C5.67697 4.32953 8.41438 3.15041 9.78405 2.58071C13.6947 0.954124 14.5073 0.671568 15.037 0.662139C15.1535 0.660186 15.4139 0.689056 15.5827 0.825959C15.7251 0.941557 15.7643 1.09771 15.7831 1.20731C15.8018 1.31691 15.8252 1.56658 15.8066 1.76167C15.5947 3.98835 14.6777 9.39191 14.2112 11.8858C14.0138 12.9411 13.6251 13.2949 13.2489 13.3295C12.4311 13.4048 11.8101 12.7891 11.0181 12.2699C9.77869 11.4575 9.07852 10.9517 7.87547 10.159C6.48515 9.24276 7.38644 8.7392 8.17878 7.91624C8.38614 7.70086 11.9892 4.42359 12.059 4.12629C12.0677 4.08911 12.0758 3.95051 11.9934 3.87733C11.9111 3.80414 11.7896 3.82917 11.7019 3.84907C11.5776 3.87728 9.59762 5.18595 5.76205 7.77507C5.20005 8.16098 4.69101 8.34901 4.23493 8.33916C3.73213 8.3283 2.76495 8.05487 2.04596 7.82115C1.16408 7.53449 0.46318 7.38293 0.524213 6.89608C0.556002 6.6425 0.905203 6.38317 1.57182 6.11808Z" fill="#0047FF"/>
</svg>

<svg width="16" height="14" fill="none" xmlns="http://www.w3.org/2000/svg"><path d="M1.572 6.118C5.677 4.33 8.414 3.15 9.784 2.581 13.694.954 14.507.67 15.037.662c.116-.002.377.027.546.164a.594.594 0 01.2.381c.019.11.042.36.024.555-.212 2.226-1.13 7.63-1.596 10.124-.197 1.055-.586 1.409-.962 1.444-.818.075-1.439-.54-2.23-1.06-1.24-.813-1.94-1.318-3.144-2.111-1.39-.916-.489-1.42.304-2.243.207-.215 3.81-3.492 3.88-3.79.009-.037.017-.175-.066-.249-.082-.073-.203-.048-.291-.028-.124.028-2.104 1.337-5.94 3.926-.562.386-1.071.574-1.527.564-.503-.01-1.47-.284-2.189-.518-.882-.287-1.583-.438-1.522-.925.032-.253.381-.513 1.048-.778z" fill="#0047FF"/></svg>
